; generated by PrusaSlicer 2.6.0+win64 on 2023-08-06 at 12:46:39 UTC


;
;
; 

; external perimeters extrusion width = 0.45mm
; perimeters extrusion width = 0.45mm
; infill extrusion width = 0.45mm
; solid infill extrusion width = 0.45mm
; top infill extrusion width = 0.40mm
; first layer extrusion width = 0.42mm

; external perimeters extrusion width = 0.45mm
; perimeters extrusion width = 0.45mm
; infill extrusion width = 0.45mm
; solid infill extrusion width = 0.45mm
; top infill extrusion width = 0.40mm
; first layer extrusion width = 0.42mm

M73 P0 R50
M73 Q0 S50
M201 X1000 Y1000 Z200 E5000 ; sets maximum accelerations, mm/sec^2
M203 X200 Y200 Z12 E120 ; sets maximum feedrates, mm / sec
M204 S1250 T1250 ; sets acceleration (S) and retract acceleration (R), mm/sec^2
M205 X8.00 Y8.00 Z0.40 E4.50 ; sets the jerk limits, mm/sec
M205 S0 T0 ; sets the minimum extruding and travel feed rate, mm/sec
;TYPE:Custom
M862.3 P "MK3S" ; printer model check
M862.1 P0.4 ; nozzle diameter check
M115 U3.12.2 ; tell printer latest fw version
G90 ; use absolute coordinates
M83 ; extruder relative mode
M104 S215 ; set extruder temp
M140 S58 ; set bed temp
M190 S58 ; wait for bed temp
M109 S215 ; wait for extruder temp
G28 W ; home all without mesh bed level
G80 ; mesh bed leveling

G1 Z0.2 F720
G1 Y-3 F1000 ; go outside print area
G92 E0
G1 X60 E9 F1000 ; intro line
G1 X100 E12.5 F1000 ; intro line

G92 E0
M221 S95

; Don't change E values below. Excessive value can damage the printer.
M907 E430 ; set extruder motor current
G21 ; set units to millimeters
G90 ; use absolute coordinates
M83 ; use relative distances for extrusion
M900 K0.05 ; Filament gcode LA 1.5
M900 K30 ; Filament gcode LA 1.0
M107
;LAYER_CHANGE
;Z:0.2
;HEIGHT:0.2
;BEFORE_LAYER_CHANGE
G92 E0.0
;0.2


G1 E-.8 F2100
G1 Z.4 F720
;AFTER_LAYER_CHANGE
;0.2
G1 X103.622 Y94.472 F10800
G1 Z.2 F720
G1 E.8 F2100
M204 S800
;TYPE:Skirt/Brim
;WIDTH:0.42
G1 F1200
G1 X104.676 Y93.337 E.04857
G1 X106.037 Y92.341 E.05288
G1 X107.568 Y91.636 E.05285
G1 X108.791 Y91.313 E.03966
G1 X110.186 Y91.174 E.04396
G1 X134.542 Y91.182 E.76367
G1 X135.962 Y91.254 E.04458
G1 X137.028 Y91.404 E.03375
G1 X138.367 Y91.713 E.04309
G1 X139.391 Y92.046 E.03376
G1 X140.656 Y92.583 E.04309
G1 X141.606 Y93.088 E.03373
G1 X142.759 Y93.837 E.04311
G1 X143.607 Y94.5 E.03375
G1 X144.613 Y95.437 E.04311
G1 X145.333 Y96.237 E.03375
G1 X146.16 Y97.335 E.0431
G1 X146.73 Y98.247 E.03372
G1 X147.354 Y99.472 E.04311
G1 X147.758 Y100.47 E.03376
G1 X148.16 Y101.784 E.04308
G1 X148.383 Y102.838 E.03378
G1 X148.551 Y104.202 E.04309
G1 X148.588 Y105.277 E.03373
G1 X148.516 Y106.65 E.04311
G1 X148.367 Y107.716 E.03375
G1 X148.057 Y109.055 E.04309
G1 X147.725 Y110.079 E.03375
G1 X147.188 Y111.344 E.04309
G1 X146.682 Y112.295 E.03378
G1 X145.934 Y113.447 E.04307
G1 X145.271 Y114.296 E.03377
G1 X144.334 Y115.301 E.04308
G1 X143.534 Y116.021 E.03375
G1 X142.436 Y116.848 E.0431
G1 X141.523 Y117.419 E.03376
G1 X140.299 Y118.043 E.04308
G1 X139.3 Y118.446 E.03378
G1 X137.986 Y118.848 E.04308
G1 X136.933 Y119.072 E.03375
G1 X135.569 Y119.239 E.04309
G1 X134.099 Y119.27 E.0461
G1 X132.919 Y119.182 E.0371
G1 X131.574 Y118.96 E.04274
G1 X130.155 Y118.574 E.04611
G1 X128.872 Y118.082 E.04308
G1 X106.037 Y106.936 E.79671
G1 X104.779 Y106.031 E.04859
G1 X103.8 Y105.028 E.04395
G1 X102.927 Y103.748 E.04858
G1 X102.35 Y102.469 E.04399
G1 X101.948 Y100.832 E.05285
G1 X101.877 Y99.148 E.05285
G1 X102.142 Y97.483 E.05286
G1 X102.731 Y95.904 E.05284
G1 X103.59 Y94.523 E.05099
M204 S1000
G1 X103.92 Y94.744 F10800
M204 S800
G1 F1200
G1 X104.095 Y94.485 E.0098
G1 X105.239 Y93.351 E.05051
G1 X106.336 Y92.604 E.04161
G1 X107.809 Y91.952 E.05051
G1 X108.982 Y91.662 E.03789
G1 X110.186 Y91.551 E.03791
G1 X134.542 Y91.559 E.76367
G1 X135.929 Y91.63 E.04355
G1 X136.956 Y91.774 E.03252
G1 X138.269 Y92.077 E.04225
G1 X139.256 Y92.398 E.03254
G1 X140.496 Y92.925 E.04224
G1 X141.412 Y93.411 E.03251
G1 X142.543 Y94.146 E.04229
G1 X143.36 Y94.784 E.0325
G1 X144.346 Y95.703 E.04226
G1 X145.04 Y96.474 E.03253
G1 X145.851 Y97.551 E.04227
G1 X146.401 Y98.43 E.03251
G1 X147.013 Y99.631 E.04226
G1 X147.401 Y100.593 E.03252
G1 X147.795 Y101.882 E.04226
G1 X148.011 Y102.897 E.03254
G1 X148.175 Y104.234 E.04223
G1 X148.211 Y105.271 E.03253
G1 X148.141 Y106.617 E.04226
G1 X147.997 Y107.644 E.03252
G1 X147.693 Y108.958 E.04229
G1 X147.373 Y109.944 E.0325
G1 X146.846 Y111.185 E.04227
G1 X146.304 Y112.192 E.03586
G1 X145.576 Y113.298 E.04152
G1 X144.728 Y114.346 E.04227
G1 X144.007 Y115.092 E.03253
G1 X142.99 Y115.976 E.04225
G1 X142.151 Y116.586 E.03252
G1 X140.996 Y117.28 E.04225
G1 X140.063 Y117.735 E.03255
G1 X138.805 Y118.218 E.04225
G1 X137.704 Y118.528 E.03586
G1 X136.403 Y118.772 E.0415
G1 X135.06 Y118.89 E.04227
G1 X133.629 Y118.869 E.04487
G1 X132.598 Y118.761 E.0325
G1 X131.274 Y118.504 E.04229
G1 X130.176 Y118.183 E.03587
G1 X128.943 Y117.701 E.04151
G1 X106.233 Y106.614 E.79238
G1 X104.932 Y105.664 E.05051
G1 X103.917 Y104.57 E.04679
G1 X103.197 Y103.455 E.04162
G1 X102.617 Y102.079 E.04682
G1 X102.286 Y100.503 E.05049
G1 X102.274 Y98.892 E.05051
G1 X102.582 Y97.311 E.0505
G1 X103.197 Y95.822 E.05051
G1 X103.887 Y94.794 E.03882
M204 S1000
; printing object Pesec a (1).stl id:0 copy 0
;WIPE_START
G1 F8640
G1 X104.095 Y94.485 E-.08601
G1 X105.239 Y93.351 E-.37194
G1 X106.336 Y92.604 E-.30645
G1 X106.477 Y92.542 E-.0356
;WIPE_END
G1 Z.6 F720
G1 X134.255 Y114.137 F10800
G1 Z.2 F720
G1 E.8 F2100
M204 S800
;TYPE:Perimeter
;WIDTH:0.419999
G1 F1200
G1 X133.335 Y114.058 E.02895
G1 X132.684 Y113.946 E.02071
G1 X132.133 Y113.809 E.0178
G1 X131.49 Y113.603 E.02117
G1 X130.916 Y113.371 E.01941
G1 X130.357 Y113.098 E.01951
G1 X129.83 Y112.794 E.01908
G1 X129.082 Y112.272 E.0286
G1 X128.576 Y111.85 E.02066
G1 X128.141 Y111.43 E.01896
G1 X127.51 Y110.704 E.03016
G1 X127.161 Y110.225 E.01858
G1 X126.666 Y109.4 E.03017
G1 X126.4 Y108.854 E.01904
G1 X126.166 Y108.276 E.01955
G1 X125.994 Y107.748 E.01741
G1 X125.766 Y106.774 E.03136
G1 X125.65 Y105.835 E.02967
G1 X125.63 Y105.279 E.01744
G1 X125.651 Y104.605 E.02114
G1 X125.714 Y104.004 E.01895
G1 X125.895 Y103.072 E.02977
G1 X126.156 Y102.214 E.02812
G1 X126.401 Y101.602 E.02067
G1 X126.666 Y101.059 E.01894
G1 X127.162 Y100.234 E.03018
G1 X127.511 Y99.753 E.01863
G1 X128.108 Y99.064 E.02858
G1 X128.58 Y98.605 E.02064
G1 X129.054 Y98.207 E.01941
G1 X129.558 Y97.841 E.01953
G1 X130.073 Y97.519 E.01904
G1 X130.93 Y97.082 E.03016
G1 X131.493 Y96.855 E.01903
G1 X132.085 Y96.663 E.01951
G1 X132.688 Y96.512 E.01949
G1 X133.301 Y96.404 E.01952
G1 X133.906 Y96.341 E.01907
G1 X134.818 Y96.323 E.0286
G1 X135.477 Y96.367 E.02071
G1 X136.04 Y96.445 E.01782
G1 X136.7 Y96.583 E.02114
G1 X137.281 Y96.75 E.01895
G1 X138.166 Y97.089 E.02971
G1 X138.998 Y97.513 E.02928
G1 X139.751 Y98 E.02812
G1 X140.272 Y98.405 E.02069
G1 X140.722 Y98.81 E.01898
G1 X141.103 Y99.216 E.01746
G1 X141.564 Y99.754 E.02221
G1 X141.937 Y100.267 E.01989
G1 X142.244 Y100.757 E.01813
G1 X142.539 Y101.297 E.01929
G1 X142.903 Y102.15 E.02908
G1 X143.109 Y102.777 E.02069
G1 X143.244 Y103.315 E.01739
G1 X143.342 Y103.912 E.01897
G1 X143.426 Y104.625 E.02251
G1 X143.448 Y105.54 E.0287
G1 X143.405 Y106.146 E.01905
G1 X143.255 Y107.097 E.03019
G1 X143.108 Y107.686 E.01903
G1 X142.916 Y108.277 E.01948
G1 X142.688 Y108.841 E.01907
G1 X142.258 Y109.685 E.0297
G1 X141.742 Y110.479 E.02969
G1 X141.367 Y110.959 E.0191
G1 X140.986 Y111.384 E.0179
G1 X140.502 Y111.854 E.02115
G1 X140.039 Y112.243 E.01896
G1 X139.508 Y112.614 E.02031
G1 X138.977 Y112.953 E.01975
G1 X138.47 Y113.229 E.0181
G1 X137.948 Y113.451 E.01779
G1 X137.272 Y113.706 E.02265
G1 X136.709 Y113.869 E.01838
G1 X136.085 Y114 E.01999
G1 X135.44 Y114.091 E.02042
G1 X134.882 Y114.13 E.01754
G1 X134.315 Y114.136 E.01778
M204 S1000
G1 X134.228 Y114.513 F10800
M204 S800
G1 F1200
G1 X133.287 Y114.432 E.02961
G1 X132.607 Y114.315 E.02163
G1 X132.029 Y114.172 E.01867
G1 X131.362 Y113.958 E.02196
G1 X130.763 Y113.716 E.02026
G1 X130.18 Y113.431 E.02035
G1 X129.627 Y113.112 E.02002
G1 X128.853 Y112.572 E.02959
G1 X128.324 Y112.131 E.02159
G1 X127.867 Y111.69 E.01991
G1 X127.214 Y110.939 E.0312
G1 X126.847 Y110.433 E.0196
G1 X126.334 Y109.58 E.03121
G1 X126.055 Y109.008 E.01995
G1 X125.812 Y108.406 E.02035
G1 X125.63 Y107.849 E.01837
G1 X125.394 Y106.84 E.03249
G1 X125.274 Y105.865 E.0308
G1 X125.253 Y105.28 E.01835
G1 X125.275 Y104.579 E.02199
G1 X125.341 Y103.948 E.01989
G1 X125.529 Y102.981 E.03089
G1 X125.8 Y102.089 E.02923
G1 X126.056 Y101.449 E.02161
G1 X126.334 Y100.879 E.01988
G1 X126.847 Y100.026 E.03121
G1 X127.215 Y99.519 E.01964
G1 X127.833 Y98.805 E.02961
G1 X128.327 Y98.325 E.0216
G1 X128.822 Y97.909 E.02027
G1 X129.347 Y97.528 E.02034
G1 X129.887 Y97.191 E.01996
G1 X130.774 Y96.739 E.03121
G1 X131.364 Y96.5 E.01996
G1 X131.981 Y96.3 E.02034
G1 X132.61 Y96.143 E.02033
G1 X133.248 Y96.031 E.02031
G1 X133.883 Y95.964 E.02002
G1 X134.827 Y95.946 E.0296
G1 X135.515 Y95.991 E.02162
G1 X136.104 Y96.073 E.01865
G1 X136.791 Y96.217 E.02201
G1 X137.401 Y96.392 E.0199
G1 X138.319 Y96.744 E.03083
G1 X139.186 Y97.186 E.03051
G1 X139.969 Y97.693 E.02925
G1 X140.514 Y98.115 E.02161
G1 X140.987 Y98.541 E.01996
G1 X141.378 Y98.959 E.01795
G1 X141.861 Y99.521 E.02323
G1 X142.25 Y100.056 E.02074
G1 X142.57 Y100.569 E.01896
G1 X142.881 Y101.137 E.0203
G1 X143.256 Y102.016 E.02996
G1 X143.471 Y102.672 E.02164
G1 X143.614 Y103.239 E.01833
G1 X143.714 Y103.851 E.01944
G1 X143.802 Y104.597 E.02355
G1 X143.825 Y105.554 E.03001
G1 X143.78 Y106.189 E.01996
G1 X143.625 Y107.172 E.0312
G1 X143.471 Y107.79 E.01997
G1 X143.27 Y108.407 E.02035
G1 X143.032 Y108.997 E.01995
G1 X142.585 Y109.874 E.03086
G1 X142.049 Y110.699 E.03085
G1 X141.657 Y111.201 E.01997
G1 X141.258 Y111.645 E.01872
G1 X140.755 Y112.134 E.022
G1 X140.269 Y112.542 E.0199
G1 X139.725 Y112.923 E.02082
G1 X139.166 Y113.28 E.0208
G1 X138.631 Y113.57 E.01908
G1 X138.096 Y113.798 E.01823
G1 X137.39 Y114.064 E.02366
G1 X136.801 Y114.234 E.01922
G1 X136.152 Y114.371 E.0208
G1 X135.479 Y114.466 E.02131
G1 X134.896 Y114.507 E.01832
G1 X134.288 Y114.513 E.01906
M204 S1000
G1 X134.196 Y114.889 F10800
M204 S800
G1 F1200
G1 X133.239 Y114.807 E.03012
G1 X132.529 Y114.684 E.02259
G1 X131.926 Y114.535 E.01948
G1 X131.234 Y114.312 E.0228
G1 X130.609 Y114.06 E.02113
G1 X130.003 Y113.764 E.02115
G1 X129.425 Y113.431 E.02092
G1 X128.624 Y112.872 E.03063
G1 X128.072 Y112.412 E.02253
G1 X127.593 Y111.95 E.02087
G1 X126.919 Y111.174 E.03223
G1 X126.532 Y110.641 E.02065
G1 X126.002 Y109.76 E.03224
G1 X125.71 Y109.161 E.02089
G1 X125.457 Y108.535 E.02117
G1 X125.267 Y107.951 E.01926
G1 X125.022 Y106.906 E.03365
G1 X124.898 Y105.895 E.03194
G1 X124.876 Y105.281 E.01926
G1 X124.898 Y104.554 E.0228
G1 X124.968 Y103.892 E.02087
G1 X125.163 Y102.89 E.03201
G1 X125.444 Y101.964 E.03034
G1 X125.711 Y101.296 E.02256
G1 X126.003 Y100.699 E.02084
G1 X126.532 Y99.817 E.03225
G1 X126.92 Y99.284 E.02067
G1 X127.559 Y98.546 E.03061
G1 X128.074 Y98.045 E.02253
G1 X128.59 Y97.612 E.02112
G1 X129.136 Y97.215 E.02117
G1 X129.701 Y96.862 E.02089
G1 X130.617 Y96.395 E.03224
G1 X131.235 Y96.146 E.02089
G1 X131.877 Y95.937 E.02117
G1 X132.532 Y95.774 E.02116
G1 X133.196 Y95.657 E.02114
G1 X133.859 Y95.587 E.0209
G1 X134.836 Y95.568 E.03064
G1 X135.554 Y95.616 E.02256
G1 X136.169 Y95.702 E.01947
G1 X136.881 Y95.85 E.0228
G1 X137.521 Y96.034 E.02088
G1 X138.473 Y96.399 E.03197
G1 X139.375 Y96.859 E.03175
G1 X140.188 Y97.385 E.03036
G1 X140.756 Y97.826 E.02255
G1 X141.251 Y98.271 E.02087
G1 X141.653 Y98.701 E.01846
G1 X142.157 Y99.288 E.02426
G1 X142.562 Y99.845 E.02159
G1 X142.897 Y100.38 E.01979
G1 X143.223 Y100.977 E.02133
G1 X143.609 Y101.883 E.03088
G1 X143.834 Y102.567 E.02258
G1 X143.983 Y103.162 E.01923
G1 X144.086 Y103.79 E.01995
G1 X144.178 Y104.57 E.02463
G1 X144.202 Y105.567 E.03127
G1 X144.155 Y106.232 E.0209
G1 X143.995 Y107.247 E.03222
G1 X143.833 Y107.894 E.02091
G1 X143.625 Y108.536 E.02116
G1 X143.375 Y109.154 E.0209
G1 X142.912 Y110.063 E.03199
G1 X142.357 Y110.918 E.03196
G1 X141.946 Y111.443 E.02091
G1 X141.53 Y111.907 E.01954
G1 X141.008 Y112.414 E.02282
G1 X140.499 Y112.842 E.02085
G1 X139.941 Y113.232 E.02135
G1 X139.245 Y113.67 E.02578
G1 X138.791 Y113.912 E.01613
G1 X138.244 Y114.145 E.01864
G1 X137.508 Y114.422 E.02466
G1 X136.893 Y114.6 E.02007
G1 X136.219 Y114.742 E.0216
G1 X135.519 Y114.841 E.02217
G1 X134.732 Y114.89 E.02472
G1 X134.256 Y114.891 E.01492
M204 S1000
G1 X134.164 Y115.264 F10800
M204 S800
G1 F1200
G1 X133.19 Y115.181 E.03065
G1 X132.452 Y115.054 E.02348
G1 X131.823 Y114.898 E.02032
G1 X131.105 Y114.667 E.02365
G1 X130.456 Y114.405 E.02194
G1 X129.826 Y114.098 E.02197
G1 X129.222 Y113.749 E.02187
G1 X128.395 Y113.172 E.03162
G1 X127.82 Y112.693 E.02346
G1 X127.32 Y112.21 E.0218
G1 X126.624 Y111.409 E.03327
G1 X126.217 Y110.85 E.02168
G1 X125.671 Y109.94 E.03327
G1 X125.366 Y109.315 E.02181
G1 X125.103 Y108.664 E.02201
G1 X124.903 Y108.053 E.02016
G1 X124.65 Y106.972 E.03481
G1 X124.522 Y105.925 E.03307
G1 X124.498 Y105.282 E.02017
G1 X124.522 Y104.528 E.02365
G1 X124.595 Y103.836 E.02182
G1 X124.796 Y102.799 E.03312
G1 X125.088 Y101.839 E.03146
G1 X125.366 Y101.143 E.0235
G1 X125.671 Y100.518 E.02181
G1 X126.217 Y99.609 E.03325
G1 X126.624 Y99.049 E.02171
G1 X127.284 Y98.287 E.03161
G1 X127.821 Y97.765 E.02348
G1 X128.358 Y97.315 E.02197
G1 X128.925 Y96.903 E.02198
G1 X129.515 Y96.534 E.02182
G1 X130.461 Y96.052 E.03329
G1 X131.106 Y95.791 E.02182
G1 X131.773 Y95.575 E.02198
M73 Q1 S50
G1 X132.453 Y95.405 E.02198
G1 X133.143 Y95.283 E.02197
G1 X133.836 Y95.211 E.02185
G1 X134.844 Y95.191 E.03161
G1 X135.593 Y95.241 E.02354
G1 X136.234 Y95.33 E.02029
G1 X136.972 Y95.484 E.02364
G1 X137.64 Y95.676 E.02179
M73 P1 R50
G1 X138.626 Y96.054 E.03311
G1 X139.563 Y96.532 E.03298
G1 X140.406 Y97.077 E.03147
G1 X140.998 Y97.536 E.02349
G1 X141.515 Y98.002 E.02182
G1 X141.929 Y98.443 E.01897
G1 X142.453 Y99.055 E.02526
G1 X142.875 Y99.634 E.02246
G1 X143.223 Y100.192 E.02062
G1 X143.564 Y100.818 E.02235
G1 X143.962 Y101.75 E.03178
G1 X144.196 Y102.462 E.0235
G1 X144.353 Y103.086 E.02017
G1 X144.458 Y103.729 E.02043
G1 X144.554 Y104.542 E.02567
G1 X144.579 Y105.58 E.03256
G1 X144.53 Y106.275 E.02185
G1 X144.364 Y107.323 E.03327
G1 X144.196 Y107.998 E.02181
G1 X143.979 Y108.665 E.02199
G1 X143.719 Y109.31 E.0218
G1 X143.239 Y110.251 E.03312
G1 X142.664 Y111.137 E.03312
G1 X142.235 Y111.686 E.02185
G1 X141.802 Y112.168 E.02032
G1 X141.261 Y112.694 E.02366
G1 X140.728 Y113.141 E.02181
G1 X140.157 Y113.541 E.02186
G1 X139.434 Y113.996 E.02678
G1 X138.952 Y114.253 E.01713
G1 X138.392 Y114.492 E.01909
G1 X137.625 Y114.78 E.02569
G1 X136.985 Y114.966 E.0209
G1 X136.285 Y115.113 E.02243
G1 X135.558 Y115.216 E.02302
G1 X134.746 Y115.267 E.02551
G1 X134.223 Y115.267 E.0164
M204 S1000
G1 X134.131 Y115.64 F10800
M204 S800
;TYPE:External perimeter
G1 F1200
G1 X133.142 Y115.555 E.03112
G1 X132.374 Y115.423 E.02443
G1 X131.72 Y115.261 E.02113
G1 X130.977 Y115.022 E.02447
G1 X130.303 Y114.75 E.02279
G1 X129.649 Y114.431 E.02281
G1 X129.02 Y114.068 E.02277
G1 X128.166 Y113.472 E.03265
G1 X127.568 Y112.974 E.0244
G1 X127.046 Y112.47 E.02275
G1 X126.328 Y111.644 E.03432
G1 X125.902 Y111.058 E.02272
G1 X125.339 Y110.12 E.0343
G1 X125.021 Y109.468 E.02274
G1 X124.748 Y108.794 E.0228
G1 X124.54 Y108.154 E.0211
G1 X124.278 Y107.039 E.03591
G1 X124.145 Y105.955 E.03424
G1 X124.121 Y105.283 E.02108
G1 X124.145 Y104.502 E.0245
G1 X124.221 Y103.781 E.02273
G1 X124.43 Y102.708 E.03428
G1 X124.732 Y101.714 E.03257
G1 X125.021 Y100.99 E.02444
G1 X125.339 Y100.338 E.02274
G1 X125.903 Y99.401 E.03429
G1 X126.328 Y98.815 E.0227
G1 X127.01 Y98.028 E.03265
G1 X127.568 Y97.485 E.02441
G1 X128.125 Y97.017 E.02281
G1 X128.714 Y96.59 E.02281
G1 X129.329 Y96.205 E.02275
G1 X130.304 Y95.708 E.03431
G1 X130.977 Y95.437 E.02275
G1 X131.669 Y95.212 E.02282
G1 X132.375 Y95.036 E.02281
G1 X133.091 Y94.91 E.02279
G1 X133.813 Y94.834 E.02276
G1 X134.853 Y94.814 E.03261
G1 X135.631 Y94.865 E.02445
